apps/scalable/accessories-media-converter.svg

<svg xmlns="http://www.w3.org/2000/svg" style="isolation:isolate" width="256" height="256"><defs><filter id="a" width="270.648" height="254.338" x="-7.32" y="2.95" filterUnits="userSpaceOnUse"><feGaussianBlur xmlns="http://www.w3.org/2000/svg" in="SourceGraphic" stdDeviation="4.294"/><feOffset xmlns="http://www.w3.org/2000/svg" dy="4" result="pf_100_offsetBlur"/><feFlood xmlns="http://www.w3.org/2000/svg" flood-opacity=".4"/><feComposite xmlns="http://www.w3.org/2000/svg" in2="pf_100_offsetBlur" operator="in" result="pf_100_dropShadow"/><feBlend xmlns="http://www.w3.org/2000/svg" in="SourceGraphic" in2="pf_100_dropShadow"/></filter></defs><path fill="#4D4D4D" d="M165.685 11.947c74.055 0 84.639 10.557 84.639 84.544v59.251c0 73.986-10.584 84.543-84.639 84.543h-75.37c-74.055 0-84.639-10.557-84.639-84.543V96.491c0-73.987 10.584-84.544 84.639-84.544h75.37z" filter="url(#a)"/><path fill="#FFF" d="M5.676 126.116v29.626c0 73.986 10.584 84.543 84.639 84.543h75.37c74.055 0 84.639-10.557 84.639-84.543v-29.626H5.676z" opacity=".1"/><path fill="#81E9C0" d="M250.325 125.02v4h-48.7l-3.66-14.78-11.69 58.95-8.31-76.5v46.72l-6.74-27.23-5.85 49.42-10.1-51.84-6.82 119.39-6.45-151.72-8.79 43.97-4.92-20.76-5.95 124.9-6.66-152.82-10.14 156.31-11.18-120.36-5.92 67.75-5.95-104.26-8.26 52.86H5.675v-4h65.14l13.53-86.65 4.93 86.54 4.97-56.78 10.59 114.04 11.64-162.32 6.05 121.86 3.12-65.56 7.24 30.52 11.71-58.59 4.45 104.67 4.06-71.06 11.31 58.03 5.41-45.81 4.14 16.72V22.84l13.47 123.94 10.09-50.93 7.23 29.17h45.57z"/><defs><filter id="b" width="162.664" height="134.533" x="46.67" y="59.87" filterUnits="userSpaceOnUse"><feGaussianBlur xmlns="http://www.w3.org/2000/svg" stdDeviation="2.719"/></filter></defs><path fill="#0F0000" d="M128.739 66.209a60.498 60.498 0 0 0-4.972.145v.002C103.974 67.743 85.56 78.781 75.226 96.68l8.121 4.685a51.514 51.514 0 0 1 57.994-24.023 51.52 51.52 0 0 1 35.555 33.432l-17.643 6.791a394.208 394.208 0 0 0 18.014 15.984 476.218 476.218 0 0 0 19.019 14.957 405.144 405.144 0 0 0 4.194-23.896c1.152-8.219 1.995-16.18 2.519-23.883l-17.351 6.678c-6.447-18.795-21.884-33.762-41.877-39.12a60.891 60.891 0 0 0-15.032-2.076zm-69.027 39.563a404.252 404.252 0 0 0-4.193 23.898c-1.152 8.219-1.995 16.179-2.52 23.883l17.348-6.678c6.446 18.797 21.884 33.766 41.879 39.123a60.749 60.749 0 0 0 20.004 1.926c19.793-1.388 38.21-12.421 48.545-30.32l-8.125-4.686a51.516 51.516 0 0 1-57.995 24.024 51.517 51.517 0 0 1-35.554-33.438l17.642-6.791a393.499 393.499 0 0 0-18.011-15.984 474.612 474.612 0 0 0-19.02-14.957z" opacity=".3" filter="url(#b)"/><path fill="#FFF" d="M128.739 66.209a61.857 61.857 0 0 0-4.972.145v.002C103.974 67.743 85.56 78.781 75.226 96.68l8.121 4.685a51.514 51.514 0 0 1 57.994-24.023 51.52 51.52 0 0 1 35.555 33.432l-17.643 6.791a394.208 394.208 0 0 0 18.014 15.984 476.218 476.218 0 0 0 19.019 14.957 405.144 405.144 0 0 0 4.194-23.896c1.152-8.219 1.995-16.18 2.519-23.883l-17.351 6.677c-6.447-18.794-21.884-33.762-41.877-39.119a60.891 60.891 0 0 0-15.032-2.076zm-69.027 39.563a404.252 404.252 0 0 0-4.193 23.898c-1.152 8.219-1.995 16.179-2.52 23.883l17.348-6.678c6.446 18.797 21.884 33.766 41.879 39.123a60.776 60.776 0 0 0 20.004 1.926c19.793-1.388 38.21-12.421 48.545-30.32l-8.125-4.686a51.516 51.516 0 0 1-57.995 24.024 51.517 51.517 0 0 1-35.554-33.438l17.642-6.791a393.499 393.499 0 0 0-18.011-15.984 474.612 474.612 0 0 0-19.02-14.957z"/><g opacity=".4"><linearGradient id="c" x1=".517" x2=".517" y2="1"><stop offset="0%" stop-color="#fff"/><stop offset="12.5%" stop-opacity=".098" stop-color="#fff"/><stop offset="92.5%" stop-opacity=".098"/><stop offset="100%" stop-opacity=".498"/></linearGradient><path fill="none" stroke="url(#c)" stroke-linecap="round" stroke-linejoin="round" stroke-width="4.077" d="M165.685 11.947c74.055 0 84.639 10.557 84.639 84.544v59.251c0 73.986-10.584 84.543-84.639 84.543h-75.37c-74.055 0-84.639-10.557-84.639-84.543V96.491c0-73.987 10.584-84.544 84.639-84.544h75.37z" vector-effect="non-scaling-stroke"/></g></svg>

<svg xmlns="http://www.w3.org/2000/svg" style="isolation:isolate" width="256" height="256" viewBox="0 0 256 256">
 <defs>
  <filter id="AEJshP0qaOvuAVEwe0d0a358coy32xuj" width="270.648" height="254.338" x="-7.32" y="2.95" filterUnits="userSpaceOnUse">
   <feGaussianBlur xmlns="http://www.w3.org/2000/svg" in="SourceGraphic" stdDeviation="4.294"/>
   <feOffset xmlns="http://www.w3.org/2000/svg" dx="0" dy="4" result="pf_100_offsetBlur"/>
   <feFlood xmlns="http://www.w3.org/2000/svg" flood-opacity=".4"/>
   <feComposite xmlns="http://www.w3.org/2000/svg" in2="pf_100_offsetBlur" operator="in" result="pf_100_dropShadow"/>
   <feBlend xmlns="http://www.w3.org/2000/svg" in="SourceGraphic" in2="pf_100_dropShadow" mode="normal"/>
  </filter>
 </defs>
 <g filter="url(#AEJshP0qaOvuAVEwe0d0a358coy32xuj)">
  <path fill="#4D4D4D" d="M 165.685 11.947 C 239.74 11.947 250.324 22.504 250.324 96.491 L 250.324 155.742 C 250.324 229.728 239.74 240.285 165.685 240.285 L 90.315 240.285 C 16.26 240.285 5.676 229.728 5.676 155.742 L 5.676 96.491 C 5.676 22.504 16.26 11.947 90.315 11.947 L 165.685 11.947 Z"/>
 </g>
 <g opacity=".1">
  <path fill="#FFFFFF" d="M 5.676 126.116 L 5.676 155.742 C 5.676 229.728 16.26 240.285 90.315 240.285 L 165.685 240.285 C 239.74 240.285 250.324 229.728 250.324 155.742 L 250.324 126.116 L 5.676 126.116 Z"/>
 </g>
 <g>
  <path fill="#81E9C0" d="M 250.325 125.02 L 250.325 129.02 L 201.625 129.02 L 197.965 114.24 L 186.275 173.19 L 177.965 96.69 L 177.965 143.41 L 171.225 116.18 L 165.375 165.6 L 155.275 113.76 L 148.455 233.15 L 142.005 81.43 L 133.215 125.4 L 128.295 104.64 L 122.345 229.54 L 115.685 76.72 L 105.545 233.03 L 94.365 112.67 L 88.445 180.42 L 82.495 76.16 L 74.235 129.02 L 5.675 129.02 L 5.675 125.02 L 70.815 125.02 L 84.345 38.37 L 89.275 124.91 L 94.245 68.13 L 104.835 182.17 L 116.475 19.85 L 122.525 141.71 L 125.645 76.15 L 132.885 106.67 L 144.595 48.08 L 149.045 152.75 L 153.105 81.69 L 164.415 139.72 L 169.825 93.91 L 173.965 110.63 L 173.965 22.84 L 187.435 146.78 L 197.525 95.85 L 204.755 125.02 L 250.325 125.02 Z"/>
  <g>
   <defs>
    <filter id="b621DKy9EHbpwj4aIbYtmkOstQiAHJvF" width="162.664" height="134.533" x="46.67" y="59.87" filterUnits="userSpaceOnUse">
     <feGaussianBlur xmlns="http://www.w3.org/2000/svg" stdDeviation="2.719"/>
    </filter>
   </defs>
   <g opacity=".3" filter="url(#b621DKy9EHbpwj4aIbYtmkOstQiAHJvF)">
    <path fill="#0F0000" d="M 128.739 66.209 C 127.075 66.189 125.416 66.238 123.767 66.354 L 123.767 66.356 C 103.974 67.743 85.56 78.781 75.226 96.68 L 83.347 101.365 C 95.026 81.134 118.778 71.296 141.341 77.342 C 158.411 81.915 171.52 94.704 176.896 110.774 L 159.253 117.565 C 164.892 122.897 170.897 128.224 177.267 133.549 C 183.619 138.805 189.959 143.791 196.286 148.506 C 197.897 140.734 199.293 132.768 200.48 124.61 C 201.632 116.391 202.475 108.43 202.999 100.727 L 185.648 107.405 C 179.201 88.61 163.764 73.643 143.771 68.285 C 138.779 66.948 133.734 66.269 128.739 66.209 Z M 59.712 105.772 C 58.101 113.543 56.705 121.512 55.519 129.67 C 54.367 137.889 53.524 145.849 52.999 153.553 L 70.347 146.875 C 76.793 165.672 92.231 180.641 112.226 185.998 C 118.881 187.782 125.632 188.387 132.23 187.924 C 152.023 186.536 170.44 175.503 180.775 157.604 L 172.65 152.918 C 160.971 173.149 137.219 182.987 114.655 176.942 C 97.584 172.368 84.475 159.577 79.101 143.504 L 96.743 136.713 C 91.105 131.381 85.101 126.053 78.732 120.729 C 72.38 115.473 66.04 110.486 59.712 105.772 Z"/>
   </g>
   <path fill="#FFFFFF" d="M 128.739 66.209 C 127.075 66.19 125.416 66.24 123.767 66.354 L 123.767 66.356 C 103.974 67.743 85.56 78.781 75.226 96.68 L 83.347 101.365 C 95.026 81.134 118.778 71.296 141.341 77.342 C 158.411 81.915 171.52 94.704 176.896 110.774 L 159.253 117.565 C 164.892 122.897 170.897 128.224 177.267 133.549 C 183.619 138.805 189.959 143.791 196.286 148.506 C 197.897 140.734 199.293 132.768 200.48 124.61 C 201.632 116.391 202.475 108.43 202.999 100.727 L 185.648 107.404 C 179.201 88.61 163.764 73.642 143.771 68.285 C 138.779 66.948 133.734 66.269 128.739 66.209 L 128.739 66.209 Z M 59.712 105.772 C 58.101 113.543 56.705 121.512 55.519 129.67 C 54.367 137.889 53.524 145.849 52.999 153.553 L 70.347 146.875 C 76.793 165.672 92.231 180.641 112.226 185.998 C 118.881 187.781 125.632 188.387 132.23 187.924 C 152.023 186.536 170.44 175.503 180.775 157.604 L 172.65 152.918 C 160.971 173.149 137.219 182.987 114.655 176.942 C 97.584 172.368 84.475 159.577 79.101 143.504 L 96.743 136.713 C 91.105 131.381 85.101 126.053 78.732 120.729 C 72.38 115.473 66.04 110.486 59.712 105.772 Z"/>
  </g>
 </g>
 <g opacity=".4">
  <linearGradient id="_lgradient_49" x1=".517" x2=".517" y1="0" y2="1">
   <stop offset="0%" style="stop-color:rgb(255,255,255)"/>
   <stop offset="12.5%" stop-opacity=".098" style="stop-color:rgb(255,255,255)"/>
   <stop offset="92.5%" stop-opacity=".098" style="stop-color:rgb(0,0,0)"/>
   <stop offset="100%" stop-opacity=".498" style="stop-color:rgb(0,0,0)"/>
  </linearGradient>
  <path fill="none" stroke="url(#_lgradient_49)" stroke-linecap="round" stroke-linejoin="round" stroke-width="4.077" d="M 165.685 11.947 C 239.74 11.947 250.324 22.504 250.324 96.491 L 250.324 155.742 C 250.324 229.728 239.74 240.285 165.685 240.285 L 90.315 240.285 C 16.26 240.285 5.676 229.728 5.676 155.742 L 5.676 96.491 C 5.676 22.504 16.26 11.947 90.315 11.947 L 165.685 11.947 Z" vector-effect="non-scaling-stroke"/>
 </g>
</svg>
